X: 5861
T: Callipygian
R: jig
M: 6/8
K: Aminor
|:cBc Ade|f3 fed|ege edc|BdB E^GB|
cBc Ade|fag fed|edc BdB|1 cAE A2B:|2 cAE Aaa||
|:c'ba e3|def eaa|c'ba e3|def eaa|
ac'a bag|efg dBG|cde dBG|1 BAA Aaa:|2 BAA A2B||

